build/img/icon2.svg

<svg width="40" height="32" viewBox="0 0 40 32" fill="none" xmlns="http://www.w3.org/2000/svg">
<path d="M7.79929 24.7266C8.12093 24.7266 8.38133 24.4641 8.38133 24.1406V18.5156C8.38133 18.1921 8.12093 17.9297 7.79929 17.9297C7.47766 17.9297 7.21725 18.1921 7.21725 18.5156V24.1406C7.21725 24.4641 7.47766 24.7266 7.79929 24.7266Z" fill="#FCDB50"/>
<path d="M10.9811 24.7266C11.3028 24.7266 11.5632 24.4641 11.5632 24.1406V18.5156C11.5632 18.1921 11.3028 17.9297 10.9811 17.9297C10.6595 17.9297 10.3991 18.1921 10.3991 18.5156V24.1406C10.3991 24.4641 10.6595 24.7266 10.9811 24.7266Z" fill="#FCDB50"/>
<path d="M14.0853 24.7266C14.4069 24.7266 14.6673 24.4641 14.6673 24.1406V18.5156C14.6673 18.1921 14.4069 17.9297 14.0853 17.9297C13.7637 17.9297 13.5033 18.1921 13.5033 18.5156V24.1406C13.5033 24.4641 13.7637 24.7266 14.0853 24.7266Z" fill="#FCDB50"/>
<path d="M17.2671 21.9141C17.5888 21.9141 17.8492 21.6516 17.8492 21.3281V18.5156C17.8492 18.1921 17.5888 17.9297 17.2671 17.9297C16.9455 17.9297 16.6851 18.1921 16.6851 18.5156V21.3281C16.6851 21.6516 16.9455 21.9141 17.2671 21.9141Z" fill="#FCDB50"/>
<path d="M37.9095 4.84376H36.7455C36.4238 4.84376 36.1634 5.10621 36.1634 5.4297C36.1634 5.75318 36.4238 6.01563 36.7455 6.01563H37.9095C38.2306 6.01563 38.4916 6.27839 38.4916 6.60157V30.586C38.4916 30.9092 38.2306 31.1719 37.9095 31.1719H34.5113C34.5758 30.9885 34.6113 30.7914 34.6113 30.586V28.5938C34.6113 28.2703 34.3509 28.0079 34.0293 28.0079C33.7076 28.0079 33.4472 28.2703 33.4472 28.5938V30.586C33.4472 30.9092 33.1862 31.1719 32.8652 31.1719H14.3364C14.424 30.9546 14.4728 30.7172 14.4728 30.4688C14.4728 29.6396 13.935 28.9347 13.1923 28.6881V27.4219H14.2615C14.9948 27.4219 15.6957 27.1463 16.2344 26.6459L21.8004 21.4783C22.3961 20.9253 22.7377 20.1404 22.7377 19.3247V17.0703C22.7377 16.3166 22.1284 15.7031 21.3797 15.7031H10.3986V1.75782C10.3986 1.43463 10.6596 1.17188 10.9806 1.17188H32.8652C33.1862 1.17188 33.4472 1.43463 33.4472 1.75782V25.8594C33.4472 26.1829 33.7076 26.4454 34.0293 26.4454C34.3509 26.4454 34.6113 26.1829 34.6113 25.8594V1.75782C34.6113 0.788575 33.828 0 32.8652 0H10.9806C10.0178 0 9.23448 0.788575 9.23448 1.75782V15.7031H5.12141V12.5391C5.12141 11.5698 4.33809 10.7813 3.3753 10.7813H1.66799C0.705201 10.7813 -0.078125 11.5698 -0.078125 12.5391C-0.078125 13.5083 0.705201 14.2969 1.66799 14.2969H3.95734V26.0547C3.95734 26.7688 4.50451 27.3563 5.19902 27.4158V28.6881C4.45631 28.9347 3.91853 29.6396 3.91853 30.4688C3.91853 31.5027 4.754 32.3438 5.78105 32.3438C6.6047 32.3438 7.30496 31.8024 7.5499 31.0547H10.8414C11.0864 31.8024 11.7867 32.3438 12.6103 32.3438H37.9095C38.8723 32.3438 39.6556 31.5552 39.6556 30.586V6.60157C39.6556 5.63233 38.8723 4.84376 37.9095 4.84376ZM12.0283 28.6881C11.4687 28.8739 11.0261 29.3195 10.8414 29.8829H7.5499C7.36529 29.3195 6.9227 28.8739 6.36309 28.6881V27.4219H12.0283V28.6881ZM1.08595 12.5391C1.08595 12.2159 1.34696 11.9531 1.66799 11.9531H3.3753C3.69633 11.9531 3.95734 12.2159 3.95734 12.5391V13.125H1.66799C1.34696 13.125 1.08595 12.8623 1.08595 12.5391ZM5.12141 26.0547V16.875H21.3797C21.4867 16.875 21.5737 16.9626 21.5737 17.0703V19.3247C21.5737 19.8142 21.3687 20.2851 21.0113 20.6171L15.4453 25.7843C15.1218 26.0846 14.7014 26.25 14.2615 26.25H5.31542C5.20841 26.25 5.12141 26.1625 5.12141 26.0547ZM5.78105 31.1719C5.39576 31.1719 5.08261 30.8564 5.08261 30.4688C5.08261 30.0812 5.39576 29.7657 5.78105 29.7657C6.16635 29.7657 6.4795 30.0812 6.4795 30.4688C6.4795 30.8564 6.16635 31.1719 5.78105 31.1719ZM12.6103 29.7657C12.9956 29.7657 13.3087 30.0812 13.3087 30.4688C13.3087 30.8564 12.9956 31.1719 12.6103 31.1719C12.225 31.1719 11.9118 30.8564 11.9118 30.4688C11.9118 30.0812 12.225 29.7657 12.6103 29.7657Z" fill="white"/>
<path d="M30.3435 10.5078C30.3435 9.75403 29.7342 9.14062 28.9855 9.14062H27.511C26.7622 9.14062 26.1529 9.75403 26.1529 10.5078V11.9922C26.1529 12.746 26.7622 13.3594 27.511 13.3594H28.9855C29.7342 13.3594 30.3435 12.746 30.3435 11.9922V10.5078ZM29.1795 11.9922C29.1795 12.0999 29.0925 12.1875 28.9855 12.1875H27.511C27.404 12.1875 27.317 12.0999 27.317 11.9922V10.5078C27.317 10.4001 27.404 10.3125 27.511 10.3125H28.9855C29.0925 10.3125 29.1795 10.4001 29.1795 10.5078V11.9922Z" fill="#FCDB50"/>
<path d="M30.3435 17.0703C30.3435 16.3165 29.7342 15.7031 28.9855 15.7031H27.511C26.7622 15.7031 26.1529 16.3165 26.1529 17.0703V18.5547C26.1529 19.3085 26.7622 19.9219 27.511 19.9219H28.9855C29.7342 19.9219 30.3435 19.3085 30.3435 18.5547V17.0703ZM29.1795 18.5547C29.1795 18.6624 29.0925 18.75 28.9855 18.75H27.511C27.404 18.75 27.317 18.6624 27.317 18.5547V17.0703C27.317 16.9626 27.404 16.875 27.511 16.875H28.9855C29.0925 16.875 29.1795 16.9626 29.1795 17.0703V18.5547Z" fill="#FCDB50"/>
<path d="M28.9855 22.2656H27.511C26.7622 22.2656 26.1529 22.879 26.1529 23.6328V25.1172C26.1529 25.871 26.7622 26.4844 27.511 26.4844H28.9855C29.7342 26.4844 30.3435 25.871 30.3435 25.1172V23.6328C30.3435 22.879 29.7342 22.2656 28.9855 22.2656ZM29.1795 25.1172C29.1795 25.2249 29.0925 25.3125 28.9855 25.3125H27.511C27.404 25.3125 27.317 25.2249 27.317 25.1172V23.6328C27.317 23.5251 27.404 23.4375 27.511 23.4375H28.9855C29.0925 23.4375 29.1795 23.5251 29.1795 23.6328V25.1172Z" fill="#FCDB50"/>
<path d="M23.98 9.49219H14.0465C13.7249 9.49219 13.4645 9.75464 13.4645 10.0781C13.4645 10.4016 13.7249 10.6641 14.0465 10.6641H23.98C24.3016 10.6641 24.562 10.4016 24.562 10.0781C24.562 9.75464 24.3016 9.49219 23.98 9.49219Z" fill="#FCDB50"/>
<path d="M14.0465 11.8359C13.7249 11.8359 13.4645 12.0984 13.4645 12.4219C13.4645 12.7454 13.7249 13.0078 14.0465 13.0078H17.1765C17.4981 13.0078 17.7585 12.7454 17.7585 12.4219C17.7585 12.0984 17.4981 11.8359 17.1765 11.8359H14.0465Z" fill="#FCDB50"/>
<path d="M19.5046 11.8359C19.1833 11.8359 18.9226 12.0984 18.9226 12.4219C18.9226 12.7454 19.1833 13.0078 19.5046 13.0078H21.6518C21.9734 13.0078 22.2338 12.7454 22.2338 12.4219C22.2338 12.0984 21.9734 11.8359 21.6518 11.8359H19.5046Z" fill="#FCDB50"/>
<path d="M23.9799 22.6172H22.6607C22.339 22.6172 22.0786 22.8796 22.0786 23.2031C22.0786 23.5266 22.339 23.7891 22.6607 23.7891H23.9799C24.3016 23.7891 24.562 23.5266 24.562 23.2031C24.562 22.8796 24.3016 22.6172 23.9799 22.6172Z" fill="#FCDB50"/>
<path d="M23.9799 24.9609H20.7205C20.3989 24.9609 20.1385 25.2234 20.1385 25.5469C20.1385 25.8704 20.3989 26.1328 20.7205 26.1328H23.9799C24.3016 26.1328 24.562 25.8704 24.562 25.5469C24.562 25.2234 24.3016 24.9609 23.9799 24.9609Z" fill="#FCDB50"/>
</svg>

<svg width="40" height="32" fill="none" xmlns="http://www.w3.org/2000/svg"><path d="M7.8 24.727a.584.584 0 00.581-.586v-5.625a.584.584 0 00-.582-.586.584.584 0 00-.582.586v5.625c0 .323.26.586.582.586zm3.181 0a.584.584 0 00.582-.586v-5.625a.584.584 0 00-.582-.586.584.584 0 00-.582.586v5.625c0 .323.26.586.582.586zm3.104 0a.584.584 0 00.582-.586v-5.625a.584.584 0 00-.582-.586.584.584 0 00-.582.586v5.625c0 .323.26.586.582.586zm3.182-2.813a.584.584 0 00.582-.586v-2.812a.584.584 0 00-.582-.586.584.584 0 00-.582.586v2.812c0 .324.26.586.582.586z" fill="#FCDB50"/><path d="M37.91 4.844h-1.164a.584.584 0 00-.583.586c0 .323.26.586.583.586h1.163c.322 0 .583.262.583.586v23.984a.585.585 0 01-.582.586h-3.4c.065-.184.1-.38.1-.586v-1.992a.584.584 0 00-.582-.586.584.584 0 00-.582.586v1.992a.584.584 0 01-.582.586H14.336a1.877 1.877 0 00-1.144-2.484v-1.266h1.07a2.89 2.89 0 001.972-.776l5.566-5.168a2.947 2.947 0 00.938-2.153V17.07c0-.753-.61-1.367-1.358-1.367H10.399V1.758c0-.323.26-.586.582-.586h21.884c.321 0 .582.263.582.586v24.101c0 .324.26.586.582.586a.584.584 0 00.582-.586V1.758c0-.97-.783-1.758-1.746-1.758H10.981c-.963 0-1.747.789-1.747 1.758v13.945H5.121V12.54c0-.97-.783-1.758-1.746-1.758H1.668c-.963 0-1.746.789-1.746 1.758 0 .97.783 1.758 1.746 1.758h2.29v11.758c0 .714.547 1.301 1.241 1.36v1.273a1.877 1.877 0 00-1.28 1.78 1.87 1.87 0 001.862 1.876c.824 0 1.524-.542 1.769-1.29h3.291c.245.748.946 1.29 1.77 1.29h25.298c.963 0 1.747-.789 1.747-1.758V6.602c0-.97-.784-1.758-1.746-1.758zM12.027 28.688a1.877 1.877 0 00-1.187 1.195H7.55a1.876 1.876 0 00-1.187-1.195v-1.266h5.665v1.266zM1.086 12.54c0-.323.261-.586.582-.586h1.707c.321 0 .582.263.582.586v.586H1.668a.584.584 0 01-.582-.586zm4.035 13.516v-9.18H21.38c.107 0 .194.088.194.195v2.255c0 .49-.205.96-.563 1.292l-5.566 5.167c-.323.3-.744.466-1.184.466H5.316a.195.195 0 01-.194-.195zm.66 5.117a.702.702 0 01-.698-.703c0-.388.313-.703.698-.703.385 0 .699.315.699.703a.702.702 0 01-.699.703zm6.83-1.406c.385 0 .698.315.698.703a.701.701 0 01-.699.703.702.702 0 01-.698-.703c0-.388.313-.703.698-.703z" fill="#fff"/><path d="M30.343 10.508c0-.754-.609-1.367-1.358-1.367h-1.474c-.749 0-1.358.613-1.358 1.367v1.484c0 .754.61 1.367 1.358 1.367h1.474c.75 0 1.358-.613 1.358-1.367v-1.484zm-1.163 1.484a.195.195 0 01-.195.195h-1.474a.195.195 0 01-.194-.195v-1.484c0-.108.087-.195.194-.195h1.474c.108 0 .195.087.195.195v1.484zm1.163 5.078c0-.753-.609-1.367-1.358-1.367h-1.474c-.749 0-1.358.614-1.358 1.367v1.485c0 .753.61 1.367 1.358 1.367h1.474c.75 0 1.358-.614 1.358-1.367V17.07zm-1.163 1.485a.195.195 0 01-.195.195h-1.474a.195.195 0 01-.194-.195V17.07c0-.107.087-.195.194-.195h1.474c.108 0 .195.088.195.195v1.485zm-.195 3.711h-1.474c-.749 0-1.358.613-1.358 1.367v1.484c0 .754.61 1.367 1.358 1.367h1.474c.75 0 1.358-.613 1.358-1.367v-1.484c0-.754-.609-1.367-1.358-1.367zm.195 2.851a.195.195 0 01-.195.195h-1.474a.195.195 0 01-.194-.195v-1.484c0-.108.087-.195.194-.195h1.474c.108 0 .195.087.195.195v1.484zm-5.2-15.625h-9.934a.584.584 0 00-.582.586c0 .324.26.586.582.586h9.934a.584.584 0 00.582-.586.584.584 0 00-.582-.586zm-9.934 2.344a.584.584 0 00-.582.586c0 .323.26.586.582.586h3.13a.584.584 0 00.583-.586.584.584 0 00-.582-.586h-3.13zm5.459 0a.584.584 0 00-.582.586c0 .323.26.586.582.586h2.147a.584.584 0 00.582-.586.584.584 0 00-.582-.586h-2.147zm4.475 10.781h-1.32a.584.584 0 00-.581.586c0 .324.26.586.582.586h1.319a.584.584 0 00.582-.586.584.584 0 00-.582-.586zm0 2.343h-3.26a.584.584 0 00-.581.587c0 .323.26.586.582.586h3.259a.584.584 0 00.582-.586.584.584 0 00-.582-.586z" fill="#FCDB50"/></svg>
